X: 4398
T: "JOHN PEEL" GALOP
R: Galop
%R: galop, polka, march
B: James Kerr "Merry Melodies" v.4 p.43 #398
Z: 2016 John Chambers <jc:trillian.mit.edu>
M: 2/4
L: 1/8
K: D
|:\
AA/A/ AA/A/ | AFAd | BdcB | A3A |\
GBAG |[1 FAdc | Bcd^d |ecBA :|[2 FAdf | e2c2 | dddz |:\
eA/A/ AA | fA/A/ AA | gefd | ecAz |
dcBA | GFED |[1 ABcd | e2a2 :|[2 Acfe | dz [dF]z || [K:=c]\
[K:G] |:\
G2G2 | G2B>c |:\
d2d2 | B2B>c | d2d2 | B2A>B |
c2c2 | A2A>B | c>dc>B | A2B>A |\
G2G2 | g2g>f | e2e2 | d2c>B |\
e2c>A | G2F2 | (A4 |[1 G2)B>c :|[2 GGG"_D.C."z |][K:D]

%%sep 1 1 500
%%sep 1 1 500

